X:1
T:Title
%%score { ( 1 3 ) | ( 2 4 ) }
L:1/8
M:4/4
K:C
V:1 treble nm="Grand Piano"
V:3 treble 
V:2 bass 
V:4 bass 
V:1
 z4 z2 z[Q:1/4=96] G | ECEG c2 Bc |[M:7/8] dcA c z2 C |[M:1/8] E |[M:4/4] GFFD E2 Gc | %5
[M:7/8] z z z2 G3[K:bass] |[M:1/8][K:treble] G |[M:4/4] GABd c2 Gc |[M:7/8] [Ac]c[GB] A z2 [G,C] | %9
[M:1/8] G |[M:4/4] AccA G2 EE | [EG]F[K:bass] .[F,B,E]2 E,2 .E,2 |] %12
V:2
 z8 | C,2 [E,G,C]2 C,2 [E,G,C]2 |[M:7/8] z z z2 E3 |[M:1/8] z |[M:4/4] G,,2 [G,B,]2 C,2 [E,G,C]2 | %5
[M:7/8] D,,2 [D,^F,C]2 [G,B,]2 z |[M:1/8] z |[M:4/4] F,,2 [F,G,B,]2 E,,2 [E,G,C]2 | %8
[M:7/8] z[K:treble] A z F[K:bass] C,2 E, |[M:1/8] z |[M:4/4] [F,A,C]2 [F,C_E]2 [G,C=E]2 z2 | %11
 z D z D C,G,, .C,,2 |] %12
V:3
 x8 | x8 |[M:7/8] z z z2 G3 |[M:1/8] x |[M:4/4] x8 |[M:7/8] BDA D z2[K:bass] G,, | %6
[M:1/8][K:treble] x |[M:4/4] x8 |[M:7/8] z z z2 [EG]3 |[M:1/8] x |[M:4/4] x8 | z4[K:bass] C4 |] %12
V:4
 x8 | x8 |[M:7/8] F,,2 [F,A,C]2 E,2 [E,G,] |[M:1/8] x |[M:4/4] x8 |[M:7/8] x7 |[M:1/8] x | %7
[M:4/4] x8 |[M:7/8] F,,2[K:treble] [F,A,C]2[K:bass] z z2 |[M:1/8] x |[M:4/4] x8 | G,,2 G,,2 z4 |] %12

